X: 27626
T: Moon Over Kilcatherine
R: jig
M: 6/8
K: Edorian
|:AEA eAe|dBG gdB|AEA aea|gfd eba|gfg afd|
eAB GDE|1 GFG dBG|edB A3:|2 GBd gfg|edB A3||
|:AEA aea|bag a2 g|e/f/ge fde|cAB =c2 d|
cAB AEF|GEA DdB|GFG dBG|edB A2 E:|

